X:260
T:Anglais efter August Bondesson
T:(Sv. L. Halland 260)
O:Vessinge, Halland
S:August Bondesson
B:Svenska Låtar Halland
Z:till abc Jonas Brunskog
R:Engelska
M:2/4
L:1/16
K:C
|:cde2 cde2|cegf efd2|B2cd B2cd|defe dec2!fine!:|
|:efg2 efg2|egc'2 bag2|def2 def2|dfa2 gfe2!D.C.!:|

